X:1555
L:1/8
M:4/4
K:A
 A | A,<A,A,>C (EF/G<)TAG/ | TF>EF<A B/A/B/c/ B<c | A,<A,A,>C (EF/G/) Af | (3(ef)d (3(cd)B c<AA :| 
 (e/f/4g/4) | Ta>ga>e c<ea<c | d<Be>A (GBBd) | c<ae<a f<aB<d | ceEd cAA (e/f/4g/4) | 
 Ta>ga<e c<ea>c | d<Be>A G<BB>E | F<AE<A D<AC>A | B,C/D/ E/C/C/B,/ CA,A, |]

